material/.icons/material/car-turbocharger.svg

<svg xmlns="http://www.w3.org/2000/svg" viewBox="0 0 24 24"><path d="M22 13v2h-3.68c.43-.91.68-1.92.68-3 0-3.86-3.14-7-7-7H2V3h10a9 9 0 019 9c0 .34-.03.67-.06 1H22m-10 6c-3.86 0-7-3.14-7-7 0-1.07.25-2.09.69-3H2v2h1.06c-.03.33-.06.66-.06 1a9 9 0 009 9h10v-2H12m4.86-6.8c-.93.74-2.14.27-2.86-.15V12c2.79-1.69 1.39-4.11 1.39-4.11s-1.06-1.85-.78 0c.17 1.18-.85 1.99-1.57 2.41l-.04-.02C12.93 7 10.13 7 10.13 7S8 7 9.74 7.69c1.11.44 1.3 1.73 1.31 2.56l-.05.03c-2.86-1.58-4.26.84-4.26.84s-1.07 1.85.4.68c.93-.73 2.14-.26 2.86.15V12c-2.79 1.7-1.39 4.12-1.39 4.12s1.06 1.85.79-.01c-.18-1.17.85-1.98 1.57-2.41l.03.03C11.07 17 13.87 17 13.87 17s2.13 0 .39-.69c-1.11-.44-1.3-1.73-1.31-2.56l.05-.02c2.86 1.58 4.26-.85 4.26-.85s1.07-1.84-.4-.68z"/></svg>

<?xml version="1.0" encoding="UTF-8"?><!DOCTYPE svg PUBLIC "-//W3C//DTD SVG 1.1//EN" "http://www.w3.org/Graphics/SVG/1.1/DTD/svg11.dtd"><svg xmlns="http://www.w3.org/2000/svg" xmlns:xlink="http://www.w3.org/1999/xlink" version="1.1" id="mdi-car-turbocharger" width="24" height="24" viewBox="0 0 24 24"><path d="M22 13V15H18.32C18.75 14.09 19 13.08 19 12C19 8.14 15.86 5 12 5H2V3H12C16.97 3 21 7.03 21 12C21 12.34 20.97 12.67 20.94 13H22M12 19C8.14 19 5 15.86 5 12C5 10.93 5.25 9.91 5.69 9H2V11H3.06C3.03 11.33 3 11.66 3 12C3 16.97 7.03 21 12 21H22V19H12M16.86 12.2C15.93 12.94 14.72 12.47 14 12.05V12C16.79 10.31 15.39 7.89 15.39 7.89S14.33 6.04 14.61 7.89C14.78 9.07 13.76 9.88 13.04 10.3L13 10.28C12.93 7 10.13 7 10.13 7S8 7 9.74 7.69C10.85 8.13 11.04 9.42 11.05 10.25L11 10.28C8.14 8.7 6.74 11.12 6.74 11.12S5.67 12.97 7.14 11.8C8.07 11.07 9.28 11.54 10 11.95V12C7.21 13.7 8.61 16.12 8.61 16.12S9.67 17.97 9.4 16.11C9.22 14.94 10.25 14.13 10.97 13.7L11 13.73C11.07 17 13.87 17 13.87 17S16 17 14.26 16.31C13.15 15.87 12.96 14.58 12.95 13.75L13 13.73C15.86 15.31 17.26 12.88 17.26 12.88S18.33 11.04 16.86 12.2Z" /></svg>
